images_sukapura_svg/cmd/lc_behindobject.svg

<svg viewBox="0 0 24 24" xmlns="http://www.w3.org/2000/svg" xmlns:xlink="http://www.w3.org/1999/xlink"><linearGradient id="a" gradientUnits="userSpaceOnUse" x1="-4" x2="-4" y1="49" y2="41"><stop offset="0" stop-color="#f5f5f5"/><stop offset="1" stop-color="#fff"/></linearGradient><path d="m13.5 2.4715892a8.0284108 8.0284108 0 0 0 -8.0284108 8.0284108 8.0284108 8.0284108 0 0 0 8.0284108 8.028411 8.0284108 8.0284108 0 0 0 8.028411-8.028411 8.0284108 8.0284108 0 0 0 -8.028411-8.0284108z" fill="#fc0" stroke="#e4b500" stroke-width=".944519"/><path d="m2.9492188 12c-.5263 0-.9492188.422919-.9492188.949219v1.068359 7.033203c0 .5263.4229188.949219.9492188.949219h8.9257812 1.175781c.5263 0 .949219-.422919.949219-.949219v-1.068359-7.033203c0-.5263-.422919-.949219-.949219-.949219h-8.925781zm.0507812 1h1.3359375 8.6640625v6.974609 1.025391h-1.335938-8.664062v-6.974609z" fill="#98989d"/><path d="m3 13v1.025391 5.949218 1.025391h1.3457031 7.3085939 1.345703v-1.025391-5.949218-1.025391h-1.345703-7.3085939z" fill="url(#a)"/></svg>

<?xml version="1.0" encoding="UTF-8" standalone="no"?>
<svg
   xmlns:dc="http://purl.org/dc/elements/1.1/"
   xmlns:cc="http://creativecommons.org/ns#"
   xmlns:rdf="http://www.w3.org/1999/02/22-rdf-syntax-ns#"
   xmlns:svg="http://www.w3.org/2000/svg"
   xmlns="http://www.w3.org/2000/svg"
   xmlns:xlink="http://www.w3.org/1999/xlink"
   xmlns:sodipodi="http://sodipodi.sourceforge.net/DTD/sodipodi-0.dtd"
   xmlns:inkscape="http://www.inkscape.org/namespaces/inkscape"
   viewBox="0 0 24 24"
   version="1.1"
   id="svg16"
   sodipodi:docname="lc_objectbackone.svg"
   inkscape:export-filename="/home/rizmut/Dokumen/Rizmut/Github/libreoffice-style-sukapura/images_sukapura/cmd/lc_objectbackone.png"
   inkscape:export-xdpi="96"
   inkscape:export-ydpi="96"
   inkscape:version="0.92.3 (unknown)">
  <metadata
     id="metadata22">
    <rdf:RDF>
      <cc:Work
         rdf:about="">
        <dc:format>image/svg+xml</dc:format>
        <dc:type
           rdf:resource="http://purl.org/dc/dcmitype/StillImage" />
        <dc:title></dc:title>
      </cc:Work>
    </rdf:RDF>
  </metadata>
  <defs
     id="defs20">
    <linearGradient
       gradientTransform="translate(-12,28)"
       y2="2"
       y1="16"
       x2="10"
       x1="10"
       gradientUnits="userSpaceOnUse"
       id="linearGradient1639">
      <stop
         id="stop1633"
         stop-color="#f5f5f5"
         offset="0" />
      <stop
         id="stop1637"
         stop-color="#fff"
         offset="1" />
    </linearGradient>
    <linearGradient
       gradientTransform="translate(75,-7)"
       id="a-367"
       gradientUnits="userSpaceOnUse"
       x1="14"
       x2="13.79661"
       y1="22"
       y2="2.1355929">
      <stop
         offset="0"
         stop-color="#0040dd"
         id="stop2206" />
      <stop
         offset="1"
         stop-color="#0a84ff"
         id="stop2208" />
    </linearGradient>
    <clipPath
       clipPathUnits="userSpaceOnUse"
       id="clipPath962">
      <path
         id="path964"
         d="m 4,11 h 8 v 3 H 4 Z"
         style="fill:#000000;fill-opacity:1"
         inkscape:connector-curvature="0" />
    </clipPath>
    <linearGradient
       id="a"
       gradientUnits="userSpaceOnUse"
       x1="10"
       x2="10"
       y1="16"
       y2="2"
       gradientTransform="translate(-12,28)">
      <stop
         offset="0"
         stop-color="#f5f5f5"
         id="stop1025" />
      <stop
         offset=".3888889"
         stop-color="#fdfdfd"
         id="stop1027" />
      <stop
         offset="1"
         stop-color="#fff"
         id="stop1029" />
    </linearGradient>
    <linearGradient
       inkscape:collect="always"
       xlink:href="#linearGradient1639"
       id="linearGradient1631"
       x1="8"
       y1="21"
       x2="8"
       y2="13"
       gradientUnits="userSpaceOnUse" />
  </defs>
  <sodipodi:namedview
     pagecolor="#ffffff"
     bordercolor="#666666"
     borderopacity="1"
     objecttolerance="10"
     gridtolerance="10"
     guidetolerance="10"
     inkscape:pageopacity="0"
     inkscape:pageshadow="2"
     inkscape:window-width="1366"
     inkscape:window-height="706"
     id="namedview18"
     showgrid="true"
     inkscape:zoom="8"
     inkscape:cx="-20.359781"
     inkscape:cy="7.8649662"
     inkscape:window-x="0"
     inkscape:window-y="0"
     inkscape:window-maximized="1"
     inkscape:current-layer="g1676">
    <inkscape:grid
       type="xygrid"
       id="grid829"
       spacingx="0.5"
       spacingy="0.5"
       empspacing="2" />
  </sodipodi:namedview>
  <g
     id="g1676">
    <path
       id="path6"
       d="M 13.5,2.4715892 A 8.0284108,8.0284108 0 0 0 5.4715892,10.5 8.0284108,8.0284108 0 0 0 13.5,18.528411 8.0284108,8.0284108 0 0 0 21.528411,10.5 8.0284108,8.0284108 0 0 0 13.5,2.4715892 Z"
       style="fill:#ffcc00;fill-opacity:1;stroke:#e4b500;stroke-width:0.94451892;stroke-opacity:1"
       inkscape:connector-curvature="0" />
    <path
       id="path2-3"
       d="M 2.9492188 12 C 2.4229188 12 2 12.422919 2 12.949219 L 2 14.017578 L 2 21.050781 C 2 21.577081 2.4229188 22 2.9492188 22 L 11.875 22 L 13.050781 22 C 13.577081 22 14 21.577081 14 21.050781 L 14 19.982422 L 14 12.949219 C 14 12.422919 13.577081 12 13.050781 12 L 4.125 12 L 2.9492188 12 z M 3 13 L 4.3359375 13 L 13 13 L 13 19.974609 L 13 21 L 11.664062 21 L 3 21 L 3 14.025391 L 3 13 z "
       style="fill:#98989d;stroke:none;fill-opacity:1" />
    <path
       sodipodi:nodetypes="ccccccccccccc"
       inkscape:connector-curvature="0"
       id="path4-6"
       d="M 3,13 V 14.025391 19.974609 21 H 4.3457031 11.654297 13 V 19.974609 14.025391 13 H 11.654297 4.3457031 Z"
       style="fill:url(#linearGradient1631);fill-opacity:1" />
  </g>
</svg>
